Papirus/22x22/panel/indicator-cpufreq-75.svg

<?xml version="1.0" encoding="UTF-8" standalone="no"?>
<svg xmlns:dc="http://purl.org/dc/elements/1.1/" xmlns:cc="http://creativecommons.org/ns#" xmlns:rdf="http://www.w3.org/1999/02/22-rdf-syntax-ns#" xmlns:svg="http://www.w3.org/2000/svg" xmlns="http://www.w3.org/2000/svg" xmlns:xlink="http://www.w3.org/1999/xlink" id="svg2" height="22" width="22" version="1.1">
    <metadata id="metadata15">
        <rdf:RDF>
            <cc:Work rdf:about="">
                <dc:format>
                    image/svg+xml
                </dc:format>
                <dc:type rdf:resource="http://purl.org/dc/dcmitype/StillImage"/>
                <dc:title/>
            </cc:Work>
        </rdf:RDF>
    </metadata>
    <defs id="defs4">
        <linearGradient x1="8.9254236" y1="5.9997859" x2="8.9254236" y2="19" id="linearGradient2868" xlink:href="#linearGradient3678" gradientUnits="userSpaceOnUse" gradientTransform="translate(-1,-2)"/>
        <linearGradient id="linearGradient3678">
            <stop id="stop3680" style="stop-color:#ffffff;stop-opacity:1" offset="0"/>
            <stop id="stop3682" style="stop-color:#e6e6e6;stop-opacity:1" offset="1"/>
        </linearGradient>
        <linearGradient x1="9" y1="3" x2="9" y2="21" id="linearGradient2393" xlink:href="#linearGradient3678" gradientUnits="userSpaceOnUse" gradientTransform="translate(-2,-1)"/>
    </defs>
    <path id="rect11" d="M 6.3476562 3 A 0.25822572 0.25822577 0 0 0 6.09375 3.2617188 L 6.09375 4.8300781 C 5.4444857 4.9388343 4.9388343 5.4444856 4.8300781 6.09375 L 3.2617188 6.09375 A 0.25822572 0.25822577 0 1 0 3.2617188 6.6113281 L 4.8027344 6.6113281 L 4.8027344 9.1933594 L 3.2617188 9.1933594 A 0.25822572 0.25822577 0 1 0 3.2617188 9.7089844 L 4.8027344 9.7089844 L 4.8027344 12.291016 L 3.2617188 12.291016 A 0.25822572 0.25822577 0 1 0 3.2617188 12.806641 L 4.8027344 12.806641 L 4.8027344 15.388672 L 3.2617188 15.388672 A 0.25822572 0.25822577 0 1 0 3.2617188 15.90625 L 4.8300781 15.90625 C 4.9388343 16.555515 5.4444857 17.061166 6.09375 17.169922 L 6.09375 18.738281 A 0.25822572 0.25822577 0 1 0 6.6113281 18.738281 L 6.6113281 17.197266 L 9.1933594 17.197266 L 9.1933594 18.738281 A 0.25822572 0.25822577 0 1 0 9.7089844 18.738281 L 9.7089844 17.197266 L 12.291016 17.197266 L 12.291016 18.738281 A 0.25822572 0.25822577 0 1 0 12.806641 18.738281 L 12.806641 17.197266 L 15.388672 17.197266 L 15.388672 18.738281 A 0.25822572 0.25822577 0 1 0 15.90625 18.738281 L 15.90625 17.169922 C 16.555514 17.061166 17.061166 16.555515 17.169922 15.90625 L 18.738281 15.90625 A 0.25822572 0.25822577 0 0 0 19 15.644531 A 0.25822572 0.25822577 0 0 0 18.738281 15.388672 L 17.197266 15.388672 L 17.197266 12.806641 L 18.738281 12.806641 A 0.25822572 0.25822577 0 0 0 19 12.544922 A 0.25822572 0.25822577 0 0 0 18.738281 12.291016 L 17.197266 12.291016 L 17.197266 9.7089844 L 18.738281 9.7089844 A 0.25822572 0.25822577 0 0 0 19 9.4472656 A 0.25822572 0.25822577 0 0 0 18.738281 9.1933594 L 17.197266 9.1933594 L 17.197266 6.6113281 L 18.738281 6.6113281 A 0.25822572 0.25822577 0 0 0 19 6.3476562 A 0.25822572 0.25822577 0 0 0 18.738281 6.09375 L 17.169922 6.09375 C 17.061166 5.4444856 16.555515 4.9388343 15.90625 4.8300781 L 15.90625 3.2617188 A 0.25822572 0.25822577 0 0 0 15.642578 3 A 0.25822572 0.25822577 0 0 0 15.388672 3.2617188 L 15.388672 4.8027344 L 12.806641 4.8027344 L 12.806641 3.2617188 A 0.25822572 0.25822577 0 0 0 12.544922 3 A 0.25822572 0.25822577 0 0 0 12.291016 3.2617188 L 12.291016 4.8027344 L 9.7089844 4.8027344 L 9.7089844 3.2617188 A 0.25822572 0.25822577 0 0 0 9.4472656 3 A 0.25822572 0.25822577 0 0 0 9.1933594 3.2617188 L 9.1933594 4.8027344 L 6.6113281 4.8027344 L 6.6113281 3.2617188 A 0.25822572 0.25822577 0 0 0 6.3476562 3 z M 6.5 9 L 15.5 9 C 15.777 9 16 9.223 16 9.5 C 16 9.777 15.777 10 15.5 10 L 6.5 10 C 6.223 10 6 9.777 6 9.5 C 6 9.223 6.223 9 6.5 9 z M 6.5 12 L 15.5 12 C 15.777 12 16 12.223 16 12.5 C 16 12.777 15.777 13 15.5 13 L 6.5 13 C 6.223 13 6 12.777 6 12.5 C 6 12.223 6.223 12 6.5 12 z M 6.5 15 L 15.5 15 C 15.777 15 16 15.223 16 15.5 C 16 15.777 15.777 16 15.5 16 L 6.5 16 C 6.223 16 6 15.777 6 15.5 C 6 15.223 6.223 15 6.5 15 z " mask="none" style="fill:#ffffff;opacity:1"/>
</svg>

<?xml version="1.0" encoding="UTF-8" standalone="no"?>
<svg id="svg2" xmlns:rdf="http://www.w3.org/1999/02/22-rdf-syntax-ns#" xmlns="http://www.w3.org/2000/svg" height="22" width="22" version="1.1" xmlns:cc="http://creativecommons.org/ns#" xmlns:xlink="http://www.w3.org/1999/xlink" xmlns:dc="http://purl.org/dc/elements/1.1/">
 <metadata id="metadata15">
  <rdf:RDF>
   <cc:Work rdf:about="">
    <dc:format>image/svg+xml</dc:format>
    <dc:type rdf:resource="http://purl.org/dc/dcmitype/StillImage"/>
    <dc:title/>
   </cc:Work>
  </rdf:RDF>
 </metadata>
 <path id="rect11" d="m6.3477 3a0.25823 0.25823 0 0 0 -0.2539 0.2617v1.5684c-0.6493 0.1087-1.155 0.6144-1.2637 1.2637h-1.5684a0.25823 0.25823 0 1 0 0 0.5175h1.541v2.5821h-1.541a0.25823 0.25823 0 1 0 0 0.5156h1.541v2.582h-1.541a0.25823 0.25823 0 1 0 0 0.516h1.541v2.582h-1.541a0.25823 0.25823 0 1 0 0 0.517h1.5684c0.1087 0.65 0.6144 1.155 1.2637 1.264v1.568a0.25823 0.25823 0 1 0 0.5175 0v-1.541h2.5821v1.541a0.25823 0.25823 0 1 0 0.5156 0v-1.541h2.582v1.541a0.25823 0.25823 0 1 0 0.516 0v-1.541h2.582v1.541a0.25823 0.25823 0 1 0 0.517 0v-1.568c0.65-0.109 1.155-0.614 1.264-1.264h1.568a0.25823 0.25823 0 0 0 0.262 -0.261 0.25823 0.25823 0 0 0 -0.262 -0.256h-1.541v-2.582h1.541a0.25823 0.25823 0 0 0 0.262 -0.262 0.25823 0.25823 0 0 0 -0.262 -0.254h-1.541v-2.582h1.541a0.25823 0.25823 0 0 0 0.262 -0.2617 0.25823 0.25823 0 0 0 -0.262 -0.2539h-1.541v-2.5821h1.541a0.25823 0.25823 0 0 0 0.262 -0.2636 0.25823 0.25823 0 0 0 -0.262 -0.2539h-1.568c-0.109-0.6493-0.614-1.155-1.264-1.2637v-1.5684a0.25823 0.25823 0 0 0 -0.263 -0.2617 0.25823 0.25823 0 0 0 -0.254 0.2617v1.541h-2.582v-1.541a0.25823 0.25823 0 0 0 -0.262 -0.2617 0.25823 0.25823 0 0 0 -0.254 0.2617v1.541h-2.582v-1.541a0.25823 0.25823 0 0 0 -0.2617 -0.2617 0.25823 0.25823 0 0 0 -0.2539 0.2617v1.541h-2.5821v-1.541a0.25823 0.25823 0 0 0 -0.2636 -0.2617zm0.1523 6h9c0.277 0 0.5 0.223 0.5 0.5s-0.223 0.5-0.5 0.5h-9c-0.277 0-0.5-0.223-0.5-0.5s0.223-0.5 0.5-0.5zm0 3h9c0.277 0 0.5 0.223 0.5 0.5s-0.223 0.5-0.5 0.5h-9c-0.277 0-0.5-0.223-0.5-0.5s0.223-0.5 0.5-0.5zm0 3h9c0.277 0 0.5 0.223 0.5 0.5s-0.223 0.5-0.5 0.5h-9c-0.277 0-0.5-0.223-0.5-0.5s0.223-0.5 0.5-0.5z" fill="#fff"/>
</svg>
